X:105
T: Limerick in the Morning
C: BB
M: 4/4
Q: 1/8=350
L: 1/8
R: reel
K: Dmix
FG|"D"Add^c dBAB|"C"cBcd "Am7"cAGE|"D"Ddd^c "Bm"dBAB|"Am"cAGA "C"(3cdc Bc|
"D"Add^c dBAB|"C"cded "Am7"cAGE|"F"=Fccd "C"ecGE|"D"FAEA D2 :|
[K:D] A2|"D"d2 ad "Bm"bdad|"D"fefg "Bm"fedB|"D"d2 ad bdad|fdcd "A7"Agfe|
"D"d2 ad "Bm"bdad|"D"fefg "Bm"fedc|"G"Bdgf "Em7"edef|"A7"agec "D"d2 :|
